images/svg/social-youtube.svg

<svg width="48" height="41" viewBox="0 0 48 41" fill="none" xmlns="http://www.w3.org/2000/svg">
<path d="M31.9402 12.3564H16.5074C14.6467 12.3564 13.3333 13.9502 13.3333 15.7564V25.8502C13.3333 27.7627 14.6467 29.3564 16.5074 29.3564H32.1591C33.8009 29.3564 35.3333 27.7627 35.3333 25.9564V15.7564C35.1143 13.9502 33.8009 12.3564 31.9402 12.3564ZM20.9949 24.8939V16.8189L28.3283 20.8564L20.9949 24.8939Z" fill="#83B3D3"/>
</svg>

<svg xmlns="http://www.w3.org/2000/svg" width="48" height="41" fill="none"><path fill="#83B3D3" d="M31.94 12.356H16.507c-1.86 0-3.174 1.594-3.174 3.4V25.85c0 1.913 1.314 3.506 3.174 3.506H32.16c1.642 0 3.174-1.593 3.174-3.4v-10.2c-.219-1.806-1.532-3.4-3.393-3.4ZM20.995 24.894v-8.075l7.333 4.037-7.333 4.038Z"/></svg>
